X: 3
T: I am Going
C: Anon.
%%abc-version 2.0
%%abcx-abcm2ps-target-version 5.9.1 (29 Sep 2008)
%%abc-creator hum2abc beta
%%abcx-conversion-date 2020/08/10 20:56:09
%%abc-copyright Electronic Copyright 2000 David Huron
%%abc-edited-by David Huron
%%abcx-initial-encoding-date August 27, 2000
%%humdrum-veritas 3865049968
%%humdrum-veritas-data 2328994122
%%linebreak <none>
%%barnumbers 0
L: 1/16
M: 2/4
Q: 1/4=60
K: F clef=bass
z4z3 B, | 
A,2> G,2 F,3 G, | 
A,6z C | 
A, G,2 G,2< F,2 D, | 
F,4z3 A, | 
G,2> F,2 D,3 F, | 
F,6z F, | 
F,2> D,2F,4 | 
F,4z3 C | 
C2> A,2 A, F,3 | 
C2> A,2F,4 | 
A, G,2 G,2< F,2 D, | 
F,4z3 A, | 
G,2> F,2 D,3 F, | 
F,6z F, | 
F,2> D,2F,4 | 
F,4z3 C | 
C2> A,2 A, F,3 | 
C2> A,2 G, F,3 | 
A, G,2 G,2< F,2 D, | 
F,4z3 A, | 
G,2> F,2 D,3 F, | 
F,6z F, | 
F,2> D,2F,4 | 
F,4z3 C | 
C2> A,2 A, F,3 | 
C2> A,2 F, F,3 | 
A,4z3 C | 
A, G,2 G,2< F,2 D, | 
F,4z3 A, | 
G,2> F,2 D,3 F, | 
F,4z3 F, | 
F,2> D,2F,4 | 
F,4z3 C | 
A, G,2 G,2< F,2 D, | 
F,4z3 A, | 
G,2> F,2 D,3 F, | 
F,4z3 F, | 
F,2> D,2F,4 | 
F,8 |]  


